assets/images/Events/Calendar.svg

<svg width="24" height="24" viewBox="0 0 24 24" fill="none" xmlns="http://www.w3.org/2000/svg">
<path d="M8.36786 12.9857C8.67404 12.9857 8.96768 12.8641 9.18419 12.6476C9.40069 12.4311 9.52232 12.1374 9.52232 11.8312C9.52232 11.5251 9.40069 11.2314 9.18419 11.0149C8.96768 10.7984 8.67404 10.6768 8.36786 10.6768C8.06167 10.6768 7.76803 10.7984 7.55153 11.0149C7.33502 11.2314 7.21339 11.5251 7.21339 11.8312C7.21339 12.1374 7.33502 12.4311 7.55153 12.6476C7.76803 12.8641 8.06167 12.9857 8.36786 12.9857ZM9.52232 15.2946C9.52232 15.6008 9.40069 15.8945 9.18419 16.111C8.96768 16.3275 8.67404 16.4491 8.36786 16.4491C8.06167 16.4491 7.76803 16.3275 7.55153 16.111C7.33502 15.8945 7.21339 15.6008 7.21339 15.2946C7.21339 14.9885 7.33502 14.6948 7.55153 14.4783C7.76803 14.2618 8.06167 14.1402 8.36786 14.1402C8.67404 14.1402 8.96768 14.2618 9.18419 14.4783C9.40069 14.6948 9.52232 14.9885 9.52232 15.2946V15.2946ZM11.8312 12.9857C12.1374 12.9857 12.4311 12.8641 12.6476 12.6476C12.8641 12.4311 12.9857 12.1374 12.9857 11.8312C12.9857 11.5251 12.8641 11.2314 12.6476 11.0149C12.4311 10.7984 12.1374 10.6768 11.8312 10.6768C11.5251 10.6768 11.2314 10.7984 11.0149 11.0149C10.7984 11.2314 10.6768 11.5251 10.6768 11.8312C10.6768 12.1374 10.7984 12.4311 11.0149 12.6476C11.2314 12.8641 11.5251 12.9857 11.8312 12.9857V12.9857ZM12.9857 15.2946C12.9857 15.6008 12.8641 15.8945 12.6476 16.111C12.4311 16.3275 12.1374 16.4491 11.8312 16.4491C11.5251 16.4491 11.2314 16.3275 11.0149 16.111C10.7984 15.8945 10.6768 15.6008 10.6768 15.2946C10.6768 14.9885 10.7984 14.6948 11.0149 14.4783C11.2314 14.2618 11.5251 14.1402 11.8312 14.1402C12.1374 14.1402 12.4311 14.2618 12.6476 14.4783C12.8641 14.6948 12.9857 14.9885 12.9857 15.2946V15.2946ZM15.2946 12.9857C15.6008 12.9857 15.8945 12.8641 16.111 12.6476C16.3275 12.4311 16.4491 12.1374 16.4491 11.8312C16.4491 11.5251 16.3275 11.2314 16.111 11.0149C15.8945 10.7984 15.6008 10.6768 15.2946 10.6768C14.9885 10.6768 14.6948 10.7984 14.4783 11.0149C14.2618 11.2314 14.1402 11.5251 14.1402 11.8312C14.1402 12.1374 14.2618 12.4311 14.4783 12.6476C14.6948 12.8641 14.9885 12.9857 15.2946 12.9857V12.9857ZM19.9125 6.63616C19.9125 5.8707 19.6084 5.1366 19.0672 4.59534C18.5259 4.05408 17.7918 3.75 17.0263 3.75H6.63616C5.8707 3.75 5.1366 4.05408 4.59534 4.59534C4.05408 5.1366 3.75 5.8707 3.75 6.63616V17.0263C3.75 17.7918 4.05408 18.5259 4.59534 19.0672C5.1366 19.6084 5.8707 19.9125 6.63616 19.9125H17.0263C17.7918 19.9125 18.5259 19.6084 19.0672 19.0672C19.6084 18.5259 19.9125 17.7918 19.9125 17.0263V6.63616ZM4.90446 8.36786H18.758V17.0263C18.758 17.4856 18.5756 17.9261 18.2508 18.2508C17.9261 18.5756 17.4856 18.758 17.0263 18.758H6.63616C6.17689 18.758 5.73642 18.5756 5.41167 18.2508C5.08691 17.9261 4.90446 17.4856 4.90446 17.0263V8.36786ZM6.63616 4.90446H17.0263C17.4856 4.90446 17.9261 5.08691 18.2508 5.41167C18.5756 5.73642 18.758 6.17689 18.758 6.63616V7.21339H4.90446V6.63616C4.90446 6.17689 5.08691 5.73642 5.41167 5.41167C5.73642 5.08691 6.17689 4.90446 6.63616 4.90446V4.90446Z" fill="white"/>
</svg>

<svg xmlns="http://www.w3.org/2000/svg" width="24" height="24" fill="none" viewBox="0 0 24 24"><path fill="#fff" d="M8.368 12.986a1.154 1.154 0 1 0 0-2.31 1.154 1.154 0 0 0 0 2.31zm1.154 2.309a1.155 1.155 0 1 1-2.309 0 1.155 1.155 0 0 1 2.31 0zm2.31-2.31a1.155 1.155 0 1 0 0-2.308 1.155 1.155 0 0 0 0 2.309zm1.154 2.31a1.155 1.155 0 1 1-2.31 0 1.155 1.155 0 0 1 2.31 0zm2.309-2.31a1.155 1.155 0 1 0 0-2.308 1.155 1.155 0 0 0 0 2.309zm4.618-6.349a2.886 2.886 0 0 0-2.887-2.886H6.636A2.886 2.886 0 0 0 3.75 6.636v10.39a2.886 2.886 0 0 0 2.886 2.887h10.39a2.887 2.887 0 0 0 2.887-2.887V6.636zM4.904 8.368h13.854v8.658a1.731 1.731 0 0 1-1.732 1.732H6.636a1.731 1.731 0 0 1-1.732-1.732V8.368zm1.732-3.464h10.39a1.732 1.732 0 0 1 1.732 1.732v.577H4.904v-.577a1.732 1.732 0 0 1 1.732-1.732z"/></svg>
